Images/big-pencil.svg

<svg width="595" height="894" viewBox="0 0 595 894" fill="none" xmlns="http://www.w3.org/2000/svg">
<path fill-rule="evenodd" clip-rule="evenodd" d="M390.903 804.995L161.177 775.932L170.986 695.61C200.181 723.203 238.113 742.013 280.858 747.441C324.046 752.878 365.708 743.896 400.799 724.105L390.967 805.036L390.903 804.995Z" fill="#215272"/>
<path fill-rule="evenodd" clip-rule="evenodd" d="M280.793 747.406C238.048 741.978 200.115 723.168 170.92 695.575L181.184 610.814L410.966 639.645L400.734 724.07C365.578 743.82 323.941 752.907 280.793 747.406Z" fill="#E53914"/>
<path fill-rule="evenodd" clip-rule="evenodd" d="M344.385 1188.31C331.691 1173.12 287.938 1146.74 233.646 1139.86C179.274 1133.11 130.553 1147.91 114.603 1159.48L161.138 776L390.864 805.063L344.321 1188.27L344.385 1188.31Z" fill="#E53914"/>
<path fill-rule="evenodd" clip-rule="evenodd" d="M458.872 1202.65C435.748 1155.24 374.311 1159.03 344.382 1188.31L391.125 802.64L411.365 636.147L468.59 643.35L476.44 644.264L525.854 650.489C519.11 706.077 512.366 761.666 505.623 817.254C503.903 831.42 502.207 845.69 500.423 859.815C486.503 974.108 472.687 1088.38 458.767 1202.67L458.872 1202.65Z" fill="#215272"/>
<path fill-rule="evenodd" clip-rule="evenodd" d="M115.643 602.633L66.7992 596.499L83.9989 454.844L132.674 460.961C121.437 481.725 113.825 504.852 110.785 529.69C107.712 554.864 109.565 579.473 115.683 602.569L115.643 602.633Z" fill="#215272"/>
<path fill-rule="evenodd" clip-rule="evenodd" d="M498.235 578.76C495.179 603.766 487.486 627.022 476.144 647.809L115.619 602.549C109.541 579.389 107.648 554.844 110.72 529.669C113.76 504.832 121.413 481.641 132.61 460.941L313.041 483.588L313.17 483.668L485.325 505.223L493.304 506.217C499.294 529.233 501.162 553.674 498.106 578.68L498.235 578.76Z" fill="#F08011"/>
<path fill-rule="evenodd" clip-rule="evenodd" d="M542.711 512.446L493.465 506.238L485.486 505.243L313.371 483.625L313.242 483.544L84.0952 454.844L84.1673 454.444L97.2952 346.696C100.047 324.174 118.05 305.338 146.22 291.723C152.107 288.91 158.421 286.274 165.185 283.921C205.719 269.596 260.984 264.069 321.004 270.53C323.833 270.878 326.637 271.122 329.529 271.511C332.759 271.933 335.885 272.379 339.115 272.801C342.321 273.119 345.551 273.541 348.717 273.923C351.714 274.288 354.775 274.693 357.796 275.163C417.608 283.811 469.89 302.89 505.752 326.998C511.715 330.919 517.245 335.102 522.229 339.299C546.005 359.39 558.775 382.025 556.039 404.378L555.255 410.483L542.879 512.463L542.711 512.446Z" fill="#482F1E"/>
<path fill-rule="evenodd" clip-rule="evenodd" d="M114.595 1159.48C92.4576 1123.92 33.8531 1105.07 0.145835 1145.07C13.9777 1031.35 27.7293 917.753 41.521 804.092C43.2409 789.926 44.9609 775.761 46.6808 761.595C53.3767 706.512 60.0325 651.492 66.7927 596.449L115.637 602.583L181.218 610.75L114.571 1159.38L114.595 1159.48Z" fill="#215272"/>
<path fill-rule="evenodd" clip-rule="evenodd" d="M344.381 1188.31L218.564 1543.61L252.062 1547.78C368.509 1405.2 437.144 1291.54 457.9 1206.76L458.492 1201.96C435.064 1155.61 374.133 1159.46 344.381 1188.31Z" fill="#FEEABF"/>
<path fill-rule="evenodd" clip-rule="evenodd" d="M218.604 1543.57L344.421 1188.27C331.686 1173.15 287.974 1146.7 233.682 1139.82C179.414 1133.04 130.589 1147.87 114.639 1159.44L151.649 1535.17L218.644 1543.51L218.604 1543.57Z" fill="#FACE8D"/>
<path fill-rule="evenodd" clip-rule="evenodd" d="M151.603 1535.23L114.592 1159.5C92.6079 1124.13 34.4052 1105.35 0.609092 1144.5C0.448538 1144.75 0.263842 1144.91 0.0389926 1145.12C-1.41765 1232.56 37.9377 1361.2 118.041 1531.02L151.538 1535.19L151.603 1535.23Z" fill="#F5BE65"/>
<path fill-rule="evenodd" clip-rule="evenodd" d="M218.586 1543.59L176.451 1599.88C198.154 1603.43 222.465 1585.96 252.083 1547.76L218.586 1543.59Z" fill="#595B51"/>
<path fill-rule="evenodd" clip-rule="evenodd" d="M176.408 1599.94L218.583 1543.59L151.588 1535.25L176.408 1599.94Z" fill="#33343A"/>
<path fill-rule="evenodd" clip-rule="evenodd" d="M176.409 1599.94L151.589 1535.24L118.092 1531.07C136.906 1573.64 155.51 1596.54 176.433 1600.04L176.409 1599.94Z" fill="#0F1817"/>
<path fill-rule="evenodd" clip-rule="evenodd" d="M498.187 578.769C495.131 603.775 487.438 627.03 476.097 647.817L181.176 610.829L198.335 469.238L313.058 483.637L313.186 483.717L493.361 506.203C499.35 529.218 501.219 553.659 498.163 578.665L498.187 578.769Z" fill="#FBBE46"/>
<path fill-rule="evenodd" clip-rule="evenodd" d="M470.37 653.671C482.715 631.998 490.986 607.679 494.218 581.535C497.451 555.392 495.252 529.763 488.514 505.654L542.678 512.452L524.702 660.485L470.37 653.671Z" fill="#215272"/>
<path fill-rule="evenodd" clip-rule="evenodd" d="M525.223 656.084L475.832 649.964L467.958 648.946L410.734 641.743L428.189 498.109L493.433 506.243C499.39 529.594 501.227 554.372 498.099 579.778C494.971 605.185 487.246 628.777 475.873 649.9L525.287 656.125L525.223 656.084Z" fill="#F08011"/>
<path fill-rule="evenodd" clip-rule="evenodd" d="M204.595 420.617C204.363 421.986 204.171 423.292 203.898 424.726L198.442 469.265L84.0576 454.9L84.1298 454.5L96.4978 352.962C99.7345 350.803 103.084 348.893 106.714 347.248C130.531 336.429 158.5 339.983 179.093 356.293C189.694 364.818 197.453 376.017 201.654 388.459C204.486 396.656 205.696 405.438 205.331 414.303C205.331 414.303 205.331 414.303 205.291 414.367L205.219 414.767C205.067 415.296 205.043 415.905 204.955 416.474L204.907 416.978L204.699 418.453L204.763 418.493L204.643 418.685C204.579 419.358 204.555 419.967 204.571 420.512L204.595 420.617Z" fill="#3E2819"/>
<path fill-rule="evenodd" clip-rule="evenodd" d="M327.884 363.816C264.433 355.826 209.329 379.374 204.865 416.334C204.529 419.154 204.507 421.904 204.717 424.71L203.873 424.627L198.482 469.207L428.263 498.037L433.655 453.458L432.747 453.334C433.405 451.428 433.894 449.507 434.255 447.504L434.295 447.44L434.351 447.208L434.471 447.016L434.503 446.679L434.784 446.232C434.872 445.663 434.896 445.054 434.944 444.549C437.785 408.175 390.46 372.772 328.021 364.882L327.884 363.816Z" fill="#5F4230"/>
<path fill-rule="evenodd" clip-rule="evenodd" d="M542.671 512.457L493.425 506.249L485.447 505.254L428.222 498.051L433.678 453.512C433.742 452.125 433.87 450.779 433.973 449.329C434.182 448.568 434.286 447.831 434.39 447.094C434.51 446.902 434.542 446.566 434.534 446.293L434.67 445.219C434.758 444.651 434.782 444.041 434.87 443.473L434.942 443.072C436.641 434.51 439.827 426.435 444.467 419.183C451.491 407.99 461.818 398.958 474.309 393.334C498.125 382.515 526.094 386.069 546.687 402.379C549.79 404.861 552.627 407.622 555.216 410.495L542.84 512.474L542.671 512.457Z" fill="#926F59"/>
<path d="M564.528 334.383L105.725 276.401L83.9437 454.436L542.747 512.418L564.528 334.383Z" fill="#215272"/>
<path d="M566.573 301.528L111.456 244.012C103.353 242.988 95.9829 248.708 94.9944 256.788L93.3606 270.142C92.3721 278.222 98.1394 285.602 106.242 286.626L561.359 344.143C569.462 345.167 576.832 339.447 577.82 331.367L579.454 318.013C580.443 309.933 574.675 302.552 566.573 301.528Z" fill="#F08011"/>
<path fill-rule="evenodd" clip-rule="evenodd" d="M515.994 835.711L514.378 849.139C513.482 856.422 507.354 861.76 500.316 861.979C499.497 862 498.718 861.956 497.978 861.849L42.8337 804.286C42.4319 804.212 41.99 804.202 41.5641 804.024C34.1797 802.511 29.026 795.443 29.954 787.823L31.5699 774.395C32.4979 766.775 39.2278 761.192 46.724 761.528C47.206 761.473 47.6078 761.547 48.0497 761.557L503.194 819.12C503.934 819.228 504.737 819.375 505.46 819.651C512.291 821.619 516.954 828.468 516.098 835.687L515.994 835.711Z" fill="#F08011"/>
<path d="M528.073 632.417L439.743 621.254L434.034 667.92L522.364 679.083L528.073 632.417Z" fill="#215272"/>
<path fill-rule="evenodd" clip-rule="evenodd" d="M498.224 578.764C495.168 603.77 487.475 627.025 476.133 647.812C458.595 680.045 432.216 706.373 400.763 724.079C365.607 743.83 323.969 752.916 280.822 747.415C238.076 741.987 200.144 723.177 170.949 695.585C144.374 670.528 125.011 638.407 115.608 602.552C109.53 579.392 107.637 554.847 110.709 529.673C113.749 504.835 121.401 481.644 132.599 460.944C132.679 460.816 132.759 460.688 132.799 460.624C149.061 430.711 172.878 405.895 201.415 388.41C237.855 365.899 282.055 355.3 328.071 361.085C374.046 366.935 414.366 388.224 444.334 419.155C467.767 443.22 484.88 473.215 493.462 506.237C499.451 529.253 501.28 553.758 498.224 578.764Z" fill="white"/>
<path d="M302.567 569.769C299.907 569.437 297.962 566.968 298.282 564.316L315.154 426.467C315.474 423.815 317.939 421.885 320.599 422.217C323.258 422.549 325.204 425.018 324.884 427.67L308.012 565.519C307.692 568.171 305.226 570.1 302.567 569.769Z" fill="#215272"/>
<path d="M302.567 569.75L189.002 555.364C186.342 555.033 184.397 552.564 184.717 549.912C185.037 547.26 187.502 545.33 190.162 545.661L303.727 560.047C306.387 560.379 308.332 562.848 308.012 565.5C307.692 568.152 305.227 570.082 302.567 569.75Z" fill="#215272"/>
<path d="M578.767 201.932L122.07 144.216L109.881 243.85L566.578 301.566L578.767 201.932Z" fill="#E53914"/>
<path d="M181.716 167.225L172.762 166.094C164.992 165.112 157.924 170.597 156.976 178.345L151.818 220.51C150.87 228.258 156.401 235.335 164.171 236.317L173.124 237.449C180.895 238.431 187.962 232.946 188.91 225.197L194.069 183.033C195.017 175.285 189.486 168.207 181.716 167.225Z" fill="white"/>
<path d="M267.378 177.992L258.425 176.86C250.654 175.878 243.587 181.363 242.639 189.112L237.48 231.276C236.532 239.024 242.063 246.102 249.833 247.084L258.787 248.215C266.557 249.197 273.625 243.712 274.573 235.964L279.731 193.799C280.679 186.051 275.149 178.974 267.378 177.992Z" fill="white"/>
<path d="M352.959 188.818L344.006 187.687C336.235 186.705 329.167 192.19 328.22 199.938L323.061 242.102C322.113 249.851 327.644 256.928 335.414 257.91L344.368 259.042C352.138 260.024 359.206 254.538 360.154 246.79L365.312 204.626C366.26 196.877 360.729 189.8 352.959 188.818Z" fill="white"/>
<path d="M438.504 199.656L429.551 198.525C421.78 197.543 414.713 203.028 413.765 210.776L408.606 252.941C407.658 260.689 413.189 267.767 420.96 268.749L429.913 269.88C437.683 270.862 444.751 265.377 445.699 257.628L450.857 215.464C451.805 207.716 446.275 200.638 438.504 199.656Z" fill="white"/>
<path d="M524.206 210.561L515.252 209.429C507.482 208.447 500.414 213.932 499.466 221.681L494.308 263.845C493.36 271.593 498.891 278.671 506.661 279.653L515.614 280.784C523.385 281.766 530.452 276.281 531.4 268.533L536.559 226.368C537.507 218.62 531.976 211.543 524.206 210.561Z" fill="white"/>
<path fill-rule="evenodd" clip-rule="evenodd" d="M584.895 202.734L115.818 143.381C109.928 142.627 106.542 136.313 109.119 131.065L157.242 33.9551C168.823 10.6438 193.908 -2.76776 219.828 0.48181L518.493 38.215C544.414 41.4646 565.538 60.7828 571.055 86.2651L594.218 192.447C595.506 198.248 590.68 203.511 584.791 202.757L584.895 202.734Z" fill="#215272"/>
</svg>

<svg xmlns="http://www.w3.org/2000/svg" width="595" height="894" fill="none" viewBox="0 0 595 894"><path fill="#215272" fill-rule="evenodd" d="m390.9 805-229.72-29.07 9.8-80.32a195.3 195.3 0 0 0 109.88 51.83c43.19 5.44 84.85-3.54 119.94-23.34l-9.83 80.94z" clip-rule="evenodd"/><path fill="#e53914" fill-rule="evenodd" d="M280.8 747.4a195.3 195.3 0 0 1-109.88-51.82l10.26-84.77 229.79 28.84-10.24 84.42a194 194 0 0 1-119.94 23.34m63.6 440.9c-12.7-15.19-56.45-41.57-110.74-48.45-54.38-6.75-103.1 8.05-119.05 19.62L161.14 776l229.72 29.06-46.54 383.21z" clip-rule="evenodd"/><path fill="#215272" fill-rule="evenodd" d="M458.87 1202.65c-23.12-47.41-84.56-43.62-114.49-14.34l46.75-385.67 20.24-166.5 57.22 7.21 7.85.91 49.41 6.23-20.23 166.76c-1.72 14.17-3.41 28.44-5.2 42.57-13.92 114.29-27.73 228.56-41.65 342.85zM115.64 602.63 66.8 596.5 84 454.84l48.67 6.12a193 193 0 0 0-21.88 68.73 193 193 0 0 0 4.9 72.88z" clip-rule="evenodd"/><path fill="#f08011" fill-rule="evenodd" d="M498.24 578.76a193 193 0 0 1-22.1 69.05l-360.52-45.26a194 194 0 0 1-4.9-72.88 194 194 0 0 1 21.89-68.73l180.43 22.65.13.08 172.15 21.55 7.98 1a194 194 0 0 1 4.8 72.46z" clip-rule="evenodd"/><path fill="#482f1e" fill-rule="evenodd" d="m542.71 512.45-49.25-6.21-7.97-1-172.12-21.62-.13-.08-229.14-28.7.07-.4L97.3 346.7c2.75-22.53 20.75-41.36 48.92-54.98 5.89-2.81 12.2-5.45 18.97-7.8 40.53-14.32 95.8-19.85 155.81-13.39 2.83.35 5.64.6 8.53.98 3.23.42 6.36.87 9.59 1.3 3.2.3 6.43.73 9.6 1.11q4.52.54 9.08 1.24c59.8 8.65 112.09 27.73 147.95 51.84 5.96 3.92 11.5 8.1 16.48 12.3 23.77 20.09 36.54 42.72 33.8 65.08l-.77 6.1-12.38 101.98z" clip-rule="evenodd"/><path fill="#215272" fill-rule="evenodd" d="M114.6 1159.48c-22.14-35.56-80.75-54.41-114.45-14.41 13.83-113.72 27.58-227.32 41.37-340.98l5.16-42.5c6.7-55.08 13.35-110.1 20.11-165.14l48.85 6.13 65.58 8.17-66.65 548.63z" clip-rule="evenodd"/><path fill="#feeabf" fill-rule="evenodd" d="m344.38 1188.31-125.82 355.3 33.5 4.17q174.69-213.86 205.84-341.02l.6-4.8c-23.44-46.35-84.37-42.5-114.12-13.65" clip-rule="evenodd"/><path fill="#face8d" fill-rule="evenodd" d="m218.6 1543.57 125.82-355.3c-12.73-15.12-56.45-41.57-110.74-48.45-54.27-6.78-103.1 8.05-119.04 19.62l37 375.73 67 8.34z" clip-rule="evenodd"/><path fill="#f5be65" fill-rule="evenodd" d="m151.6 1535.23-37-375.73c-22-35.37-80.2-54.15-114-15-.15.25-.34.41-.56.62q-2.17 131.16 118 385.9l33.5 4.17z" clip-rule="evenodd"/><path fill="#595b51" fill-rule="evenodd" d="m218.59 1543.59-42.14 56.29c21.7 3.55 46.02-13.92 75.63-52.12z" clip-rule="evenodd"/><path fill="#33343a" fill-rule="evenodd" d="m176.4 1599.94 42.18-56.35-67-8.34z" clip-rule="evenodd"/><path fill="#0f1817" fill-rule="evenodd" d="m176.4 1599.94-24.81-64.7-33.5-4.17c18.82 42.57 37.42 65.47 58.34 68.97z" clip-rule="evenodd"/><path fill="#fbbe46" fill-rule="evenodd" d="M498.19 578.77a193 193 0 0 1-22.1 69.05l-294.91-37 17.16-141.58 114.72 14.4.13.08 180.17 22.48a194 194 0 0 1 4.8 72.46z" clip-rule="evenodd"/><path fill="#215272" fill-rule="evenodd" d="M470.37 653.67a193 193 0 0 0 23.85-72.13 193 193 0 0 0-5.7-75.89l54.16 6.8-17.98 148.03z" clip-rule="evenodd"/><path fill="#f08011" fill-rule="evenodd" d="m525.22 656.08-49.39-6.12-7.87-1.01-57.23-7.2L428.2 498.1l65.24 8.13a199 199 0 0 1 4.67 73.54 199 199 0 0 1-22.23 70.12l49.42 6.23z" clip-rule="evenodd"/><path fill="#3e2819" fill-rule="evenodd" d="M204.6 420.62c-.24 1.37-.43 2.67-.7 4.1l-5.46 44.54L84.06 454.9l.07-.4L96.5 352.96a71 71 0 0 1 10.21-5.71 70 70 0 0 1 72.38 9.04 70.1 70.1 0 0 1 26.24 58.01l-.04.07-.07.4c-.15.53-.18 1.13-.26 1.7l-.05.5-.21 1.48.06.04-.12.2q-.09 1-.07 1.82z" clip-rule="evenodd"/><path fill="#5f4230" fill-rule="evenodd" d="M327.88 363.82c-63.45-8-118.55 15.55-123.01 52.51a43 43 0 0 0-.15 8.38l-.85-.08-5.39 44.58 229.78 28.83 5.4-44.58-.91-.13q.97-2.83 1.5-5.83l.05-.06.05-.23.12-.2.03-.33.28-.45c.1-.57.12-1.18.16-1.68 2.85-36.37-44.48-71.78-106.92-79.67z" clip-rule="evenodd"/><path fill="#926f59" fill-rule="evenodd" d="m542.67 512.46-49.24-6.21-7.98-1-57.23-7.2 5.46-44.54c.06-1.38.19-2.73.3-4.18.2-.76.3-1.5.41-2.24.12-.19.15-.52.14-.8l.14-1.07c.09-.57.11-1.18.2-1.75l.07-.4a69 69 0 0 1 9.53-23.89 68 68 0 0 1 29.84-25.85 70 70 0 0 1 72.38 9.05 73 73 0 0 1 8.53 8.12l-12.38 101.97z" clip-rule="evenodd"/><path fill="#215272" d="m564.53 334.38-458.8-57.98-21.79 178.04 458.8 57.98z"/><path fill="#f08011" d="M566.57 301.53 111.46 244a14.7 14.7 0 0 0-16.47 12.78l-1.63 13.35a14.83 14.83 0 0 0 12.88 16.49l455.12 57.51a14.7 14.7 0 0 0 16.46-12.77l1.63-13.36a14.84 14.84 0 0 0-12.88-16.48"/><path fill="#f08011" fill-rule="evenodd" d="m516 835.71-1.62 13.43a14.67 14.67 0 0 1-16.4 12.7L42.83 804.3c-.4-.08-.84-.09-1.27-.27a14.77 14.77 0 0 1-11.6-16.2l1.61-13.43a14.7 14.7 0 0 1 15.15-12.86c.49-.06.89.02 1.33.03l455.14 57.56c.74.1 1.55.25 2.27.53a15 15 0 0 1 10.64 16.04z" clip-rule="evenodd"/><path fill="#215272" d="m528.07 632.42-88.33-11.17-5.7 46.67 88.32 11.16z"/><path fill="#fff" fill-rule="evenodd" d="M498.22 578.76a193 193 0 0 1-22.09 69.05 194.35 194.35 0 0 1-195.3 99.6 195.3 195.3 0 0 1-109.88-51.82 196.4 196.4 0 0 1-55.34-93.04 194 194 0 0 1-4.9-72.88 194 194 0 0 1 22.09-69.05 193 193 0 0 1 68.61-72.21 194 194 0 0 1 126.66-27.33 195.8 195.8 0 0 1 116.26 58.07 195.5 195.5 0 0 1 49.13 87.09 194 194 0 0 1 4.76 72.52" clip-rule="evenodd"/><path fill="#215272" d="M302.57 569.77a4.95 4.95 0 0 1-4.29-5.45l16.87-137.85a4.9 4.9 0 0 1 9.73 1.2l-16.87 137.85a4.9 4.9 0 0 1-5.44 4.25"/><path fill="#215272" d="M302.57 569.75 189 555.36a4.95 4.95 0 0 1-4.28-5.45 4.9 4.9 0 0 1 5.44-4.25l113.57 14.39c2.66.33 4.6 2.8 4.28 5.45a4.9 4.9 0 0 1-5.44 4.25"/><path fill="#e53914" d="m578.77 201.93-456.7-57.71-12.19 99.63 456.7 57.72z"/><path fill="#fff" d="m181.72 167.23-8.96-1.14a14.1 14.1 0 0 0-15.78 12.25l-5.16 42.17a14.23 14.23 0 0 0 12.35 15.8l8.95 1.14c7.78.98 14.84-4.5 15.79-12.25l5.16-42.17a14.23 14.23 0 0 0-12.35-15.8M267.38 178l-8.95-1.14a14.1 14.1 0 0 0-15.8 12.25l-5.15 42.17a14.23 14.23 0 0 0 12.35 15.8l8.96 1.13c7.77.99 14.83-4.5 15.78-12.25l5.16-42.16a14.2 14.2 0 0 0-12.35-15.8m85.58 10.82-8.95-1.13a14.1 14.1 0 0 0-15.79 12.25l-5.16 42.16a14.23 14.23 0 0 0 12.35 15.81l8.96 1.13a14.1 14.1 0 0 0 15.78-12.25l5.16-42.16a14.23 14.23 0 0 0-12.35-15.81m85.54 10.84-8.95-1.13a14.1 14.1 0 0 0-15.79 12.25l-5.15 42.16a14.23 14.23 0 0 0 12.35 15.8l8.95 1.14a14.1 14.1 0 0 0 15.79-12.25l5.16-42.17a14.23 14.23 0 0 0-12.36-15.8m85.7 10.9-8.95-1.13a14.1 14.1 0 0 0-15.78 12.25l-5.16 42.17a14.23 14.23 0 0 0 12.35 15.8l8.95 1.13c7.77.99 14.84-4.5 15.79-12.25l5.16-42.16a14.23 14.23 0 0 0-12.35-15.8"/><path fill="#215272" fill-rule="evenodd" d="m584.9 202.73-469.08-59.35a8.63 8.63 0 0 1-6.7-12.31l48.12-97.11A61.3 61.3 0 0 1 219.83.48l298.66 37.74a61.7 61.7 0 0 1 52.56 48.05l23.17 106.18a8.52 8.52 0 0 1-9.43 10.3z" clip-rule="evenodd"/></svg>
